X: 5026
T: Brian Boru's March
R: jig
M: 6/8
K: Adorian
e|:c>BA A2e|c>BA A2d|B>AG G2d|B>AG G2e|
c>BA A2e|c>BA A2E|AB/c/d e2d|1 c>BA A2e:|2 c>BA A>BA/F/||
|:G>cd e2d|e2d e2d|G>Bc d2B|d2e d>BG|
A>cd e2d|e2d e2d|c>BA e2d|c>BA A2B:|
|:c>BA a2A|c>BA a2A|B>AG g2G|B>AG g2B|
c>BA a2A|c>BA a3|AB/c/d e2d|1 c>BA A2B:|2 c>BA A2||

